lib/flags/l/TKL.svg

<svg xmlns="http://www.w3.org/2000/svg" fill="none" viewBox="0 0 32 24"><mask id="TKL_svg__a" width="32" height="24" x="0" y="0" mask-type="alpha" maskUnits="userSpaceOnUse"><path fill="#fff" d="M0 0H32V24H0z"/></mask><g mask="url(#TKL_svg__a)"><path fill="#2E42A5" fill-rule="evenodd" d="M0 0V24H32V0H0Z" clip-rule="evenodd"/><mask id="TKL_svg__b" width="32" height="24" x="0" y="0" mask-type="alpha" maskUnits="userSpaceOnUse"><path fill="#fff" fill-rule="evenodd" d="M0 0V24H32V0H0Z" clip-rule="evenodd"/></mask><g fill-rule="evenodd" clip-rule="evenodd" mask="url(#TKL_svg__b)"><path fill="#F7FCFF" d="M3.29448 10.0634 2.40892 10.6114 2.75272 9.69146 2 8.99504H2.913L3.29448 8 3.58559 8.99504H4.5L3.84101 9.69146 4.16365 10.6114 3.29448 10.0634zM7.29448 6.06339 6.40892 6.61135 6.75272 5.69146 6 4.99504H6.913L7.29448 4 7.58559 4.99504H8.5L7.84101 5.69146 8.16365 6.61135 7.29448 6.06339zM11.2945 10.0634 10.4089 10.6114 10.7527 9.69146 10 8.99504H10.913L11.2945 8 11.5856 8.99504H12.5L11.841 9.69146 12.1637 10.6114 11.2945 10.0634zM7.29448 14.0634 6.40892 14.6114 6.75272 13.6915 6 12.995H6.913L7.29448 12 7.58559 12.995H8.5L7.84101 13.6915 8.16365 14.6114 7.29448 14.0634z"/><path fill="#FECA00" d="M24.842 5.46313C20.7585 7.4803 7.34123 16.5452 7.34123 16.5452H29.6924C29.4691 16.4953 29.2609 16.4539 29.0645 16.4148C27.4238 16.0881 26.6138 15.9268 24.842 12.3971C22.8581 8.44501 24.842 5.46313 24.842 5.46313ZM6.61569 17.9652L6.31006 18.7251L6.61569 19.5601L29.3694 20.0001L30 18.8403L29.3694 18.0053L6.61569 17.9652Z"/></g></g></svg>

<svg xmlns="http://www.w3.org/2000/svg" fill="none" viewBox="0 0 32 24"><mask id="TKL_svg__a" width="32" height="24" x="0" y="0" maskUnits="userSpaceOnUse"><path fill="#fff" d="M0 0h32v24H0z"/></mask><g mask="url(#TKL_svg__a)"><path fill="#2E42A5" fill-rule="evenodd" d="M0 0v24h32V0H0z" clip-rule="evenodd"/><mask id="TKL_svg__b" width="32" height="24" x="0" y="0" maskUnits="userSpaceOnUse"><path fill="#fff" fill-rule="evenodd" d="M0 0v24h32V0H0z" clip-rule="evenodd"/></mask><g fill-rule="evenodd" clip-rule="evenodd" mask="url(#TKL_svg__b)"><path fill="#F7FCFF" d="M3.294 10.063l-.885.548.344-.92L2 8.995h.913L3.294 8l.292.995H4.5l-.659.696.323.92-.87-.548zm4-4l-.885.548.344-.92L6 4.995h.913L7.294 4l.292.995H8.5l-.659.696.323.92-.87-.548zm4 4l-.885.548.344-.92L10 8.995h.913L11.294 8l.292.995h.914l-.659.696.323.92-.87-.548zm-4 4l-.885.548.344-.92L6 12.995h.913L7.294 12l.292.995H8.5l-.659.697.323.92-.87-.549z"/><path fill="#FECA00" d="M24.842 5.463c-4.083 2.017-17.5 11.082-17.5 11.082h22.35c-.223-.05-.431-.091-.628-.13-1.64-.327-2.45-.488-4.222-4.018-1.984-3.952 0-6.934 0-6.934zM6.616 17.965l-.306.76.306.835 22.753.44.631-1.16-.63-.835-22.754-.04z"/></g></g></svg>
